X:1
T:The garden of daisies
M:2/4
L:1/8
R:Set Dance
B:The Complete Collection of Irish Music, Stanford/Petrie, no. 609
K:Am
c/d/|e>f d>e|c>e
d/c/B/c/|AA/B/ c/>A/B/>^G/|A>=G E z|
EE E/F/E/D/|C>D E/F/G/E/|AA/B/
c/>A/B/>G/|A3 c/d/|
e>f d>e|c>e d/c/B/c/|AA/B/
c/>A/B/>^G/|A>=G E z|
EE E/F/E/D/|CD E/F/G/E/|AA/B/
c/>A/B/>^G/|A3 E||
A>B cd|ee A2|ee d/f/e/d/|cB
A/>B/c/>d/|
eE dD|cC d/c/B/c/|AA/B/
c/A/B/G/|A>G E z|
e>f d>e|c>e d/c/B/c/|AA/B/
c/>A/B/>^G/|A>=G E C/4D/4E/4F/4|
G>E A/G/E/D/|C>D
E/F/G/E/|AA/B/ c/>A/B/>^G/|A3 ||



